pages/static/img/tools/tappable.svg

<svg fill="none" height="400" viewBox="0 0 800 400" width="800" xmlns="http://www.w3.org/2000/svg"><path d="m0 0h800v400h-800z" fill="#33feb5"/><g fill="#000"><path clip-rule="evenodd" d="m169 144h40v112h-91v-40h16v24h59v-80h-24z" fill-rule="evenodd"/><path clip-rule="evenodd" d="m118 160h-19v-16h54v16h-19v40h-16z" fill-rule="evenodd"/><path d="m335.714 225.429h-1c-2.714 3.857-6.714 6.571-14 6.571-13 0-23.428-11.429-23.428-26.714 0-15.286 10.285-26.572 23.285-26.572 6.429 0 11 2.572 14 6h1v-4.714h14v50.714h-14v-5.285zm.143-20c0-8.429-5.571-13.143-12.286-13.143-6.714 0-12.142 5.143-12.142 13.143s5.428 13.142 12.285 13.142c7.429 0 12.143-6 12.143-13.142zm77.429 0c0 14.857-9.857 26.571-22.857 26.571-7.858 0-12.286-3.429-14.429-6.429h-1v24.429h-14.143v-70h14v4.714h1c2.572-3.143 6.572-6 13.714-6 13.143.143 23.715 11.572 23.715 26.715zm-14.143 0c0-7.858-5.429-13.143-12.286-13.143-7.286 0-12.143 6-12.143 13.143 0 8.428 5.572 13.428 12.286 13.428 6.857-.143 12.143-5.571 12.143-13.428zm74.571 0c0 14.857-9.857 26.571-22.857 26.571-7.857 0-12.286-3.429-14.428-6.429h-1.143v24.429h-14v-70h14v4.714h1c2.571-3.143 6.714-6 13.714-6 13.143.143 23.714 11.572 23.714 26.715zm-14.285 0c0-7.858-5.429-13.143-12.286-13.143-7.286 0-12.143 6-12.143 13.143 0 8.428 5.571 13.428 12.286 13.428 6.857-.143 12.143-5.571 12.143-13.428zm137 0c0 15.142-10.572 26.714-23.715 26.714-7.285 0-11.285-2.857-13.714-6h-1v4.714h-14v-70.857h14v25.429h1c2.429-3 6.714-6.429 14.429-6.429 13.142-.143 23 11.571 23 26.429zm-14.286 0c0-8-5.286-13.286-12.143-13.286-6.571 0-12.286 4.857-12.286 13.286 0 7.142 4.857 13.285 12.143 13.285 6.857 0 12.286-5.285 12.286-13.285zm36.428-45.429h-14.142v70.714h14v-70.714zm59.143 48.857h-36.714c0 4.286 2.143 7.572 5.429 9.286 5.142 2.714 14.285 2 16.142-3.429h14c-.142.572-.285 1.143-.428 1.715-3.714 11.428-13.429 15.571-23.286 15.571-15.428 0-26.286-11.286-26.286-26.571 0-15.858 11.715-26.715 25.858-26.715 15.571 0 25.285 11.572 25.285 26.572zm-14.143-9.286c-.714-5.142-5.142-9.142-11.142-9.142-6.572 0-10.715 4.571-11.429 9.142zm-144.714 25.858h-1c-2.714 3.857-6.714 6.571-14 6.571-13 0-23.428-11.429-23.428-26.714 0-15.286 10.285-26.572 23.285-26.572 6.429 0 11 2.572 14 6h1v-4.714h14v50.714h-14v-5.285zm.143-20c0-8.429-5.571-13.143-12.286-13.143-6.714 0-12.143 5.143-12.143 13.143s5.429 13.142 12.286 13.142c7.286 0 12.143-6 12.143-13.142zm-252.857 25.857h14.428v-54.429h18.143v-13.571h-50.714v13.571h18.143z"/></g></svg>

<svg width="800" height="400" viewBox="0 0 800 400" fill="none" xmlns="http://www.w3.org/2000/svg">
<rect width="800" height="400" fill="#33FEB5"/>
<path fill-rule="evenodd" clip-rule="evenodd" d="M169 144H209V256H118V216H134V240H193V160H169V144Z" fill="black"/>
<path fill-rule="evenodd" clip-rule="evenodd" d="M118 160H99V144H153V160H134V200H118V160Z" fill="black"/>
<path d="M335.714 225.429H334.714C332 229.286 328 232 320.714 232C307.714 232 297.286 220.571 297.286 205.286C297.286 190 307.571 178.714 320.571 178.714C327 178.714 331.571 181.286 334.571 184.714H335.571V180H349.571V230.714H335.571V225.429H335.714ZM335.857 205.429C335.857 197 330.286 192.286 323.571 192.286C316.857 192.286 311.429 197.429 311.429 205.429C311.429 213.429 316.857 218.571 323.714 218.571C331.143 218.571 335.857 212.571 335.857 205.429ZM413.286 205.429C413.286 220.286 403.429 232 390.429 232C382.571 232 378.143 228.571 376 225.571H375V250H360.857V180H374.857V184.714H375.857C378.429 181.571 382.429 178.714 389.571 178.714C402.714 178.857 413.286 190.286 413.286 205.429ZM399.143 205.429C399.143 197.571 393.714 192.286 386.857 192.286C379.571 192.286 374.714 198.286 374.714 205.429C374.714 213.857 380.286 218.857 387 218.857C393.857 218.714 399.143 213.286 399.143 205.429ZM473.714 205.429C473.714 220.286 463.857 232 450.857 232C443 232 438.571 228.571 436.429 225.571H435.286V250H421.286V180H435.286V184.714H436.286C438.857 181.571 443 178.714 450 178.714C463.143 178.857 473.714 190.286 473.714 205.429ZM459.429 205.429C459.429 197.571 454 192.286 447.143 192.286C439.857 192.286 435 198.286 435 205.429C435 213.857 440.571 218.857 447.286 218.857C454.143 218.714 459.429 213.286 459.429 205.429ZM596.429 205.429C596.429 220.571 585.857 232.143 572.714 232.143C565.429 232.143 561.429 229.286 559 226.143H558V230.857H544V160H558V185.429H559C561.429 182.429 565.714 179 573.429 179C586.571 178.857 596.429 190.571 596.429 205.429ZM582.143 205.429C582.143 197.429 576.857 192.143 570 192.143C563.429 192.143 557.714 197 557.714 205.429C557.714 212.571 562.571 218.714 569.857 218.714C576.714 218.714 582.143 213.429 582.143 205.429ZM618.571 160H604.429V230.714H618.429V160H618.571ZM677.714 208.857H641C641 213.143 643.143 216.429 646.429 218.143C651.571 220.857 660.714 220.143 662.571 214.714H676.571C676.429 215.286 676.286 215.857 676.143 216.429C672.429 227.857 662.714 232 652.857 232C637.429 232 626.571 220.714 626.571 205.429C626.571 189.571 638.286 178.714 652.429 178.714C668 178.714 677.714 190.286 677.714 205.286V208.857ZM663.571 199.571C662.857 194.429 658.429 190.429 652.429 190.429C645.857 190.429 641.714 195 641 199.571H663.571ZM518.857 225.429H517.857C515.143 229.286 511.143 232 503.857 232C490.857 232 480.429 220.571 480.429 205.286C480.429 190 490.714 178.714 503.714 178.714C510.143 178.714 514.714 181.286 517.714 184.714H518.714V180H532.714V230.714H518.714V225.429H518.857ZM519 205.429C519 197 513.429 192.286 506.714 192.286C500 192.286 494.571 197.429 494.571 205.429C494.571 213.429 500 218.571 506.857 218.571C514.143 218.571 519 212.571 519 205.429ZM266.143 231.286H280.571V176.857H298.714V163.286H248V176.857H266.143V231.286Z" fill="black"/>
</svg>
